!!!COM: Corelli, Arcangelo
!!!OTL: Sonata da chiesa
!!!OPS: 3
!!!ONM: 4
!!!OMV: 3
!!!OMD: Adagio
**kern	**fb	**kern	**kern	**kern
*part4	*part4	*part3	*part2	*part1
*staff4	*	*staff3	*staff2	*staff1
*clefF4	*	*clefF4	*clefG2	*clefG2
*k[f#c#]	*	*k[f#c#]	*k[f#c#]	*k[f#c#]
*b:	*	*b:	*b:	*b:
*M3/8	*	*M3/8	*M3/8	*M3/8
=1	=1	=1	=1	=1
8BL	.	8BL	8r	8r
8BBJ	.	8BBJ	(16ddLL	(16ff#LL
.	.	.	16cc#J)	16eeJ)
8r	.	8r	8ddJ	8ff#J
=	=	=	=	=
8EL	.	8EL	8r	8r
8EEJ	.	8EEJ	(16eeLL	(16ggLL
.	.	.	16ddJ)	16ff#J)
8r	.	8r	8eeJ	8ggJ
=	=	=	=	=
8AL	.	8AL	8r	8r
8AAJ	.	8AAJ	(16cc#LL	(16eeLL
.	.	.	16bJ)	16ddJ)
8r	.	8r	8cc#J	8eeJ
=	=	=	=	=
8DL	.	8DL	8r	8r
8DDJ	.	8DDJ	(16ddLL	(16ff#LL
.	.	.	16cc#J)	16eeJ)
8r	.	8r	8ddJ	8ff#J
=	=	=	=	=
8GL	.	8GL	8r	8r
8GGJ	.	8GGJ	(16bLL	(16ddLL
.	.	.	16a#XJ)	16cc#J)
8r	.	8r	8bJ	8ddJ
=	=	=	=	=
8EL	.	8EL	8r	8r
8EEJ	.	8EEJ	(16eeLL	(16ggLL
.	.	.	16dd)	16ff#)
8r	.	8r	(16cc#	(16ee
.	.	.	16bJJ)	16ddJJ)
=	=	=	=	=
8.F#L	#	8.F#L	8.a#XL	(16cc#LL
.	.	.	.	16ff#)
.	.	.	.	(16gg#X
16EK	.	16EK	16cc#K	16aa#X)
8DJ	6	8DJ	8ddJ	(16bb
.	.	.	.	16ff#JJ)
=	=	=	=	=
8EL	6 5	8EL	8bL	(16eeLL
.	.	.	.	16ddJJ)
8F#	4	8F#	8.b	4cc#
8FF#J	#	8FF#J	.	.
.	.	.	16a#XJk	.
=	=	=	=	=
8BB	.	8BB	4b	8bL
[4B	.	[4B	.	(16ddL
.	.	.	.	16cc#J)
.	.	.	8r	8bJ
=	=	=	=	=
8BL]	4 2	8BL]	4.r	8cc#L
8A	6	8A	.	8f#
8F#J	.	8F#J	.	[8ff#J
=	=	=	=	=
4G	7	4G	8r	8ff#]
.	6	.	(16bbLL	[4ee
.	.	.	16aaJ)	.
8E	.	8E	8ggJ	.
=	=	=	=	=
4F#	7	4F#	8aaL	8eeL]
.	6	.	8dd	8aa
8B	.	8B	[8dddJ	8ddJ
=	=	=	=	=
8EL	7	8EL	8ddd]	4.gg
8A	7	8A	[4ccc#	.
8AAJ	7	8AAJ	.	.
=	=	=	=	=
8DL	.	8DL	8ccc#]	4.ff#
16dL	6	16dL	[4bb	.
16c#J	.	16c#J	.	.
8BJ	.	8BJ	.	.
=	=	=	=	=
8c#L	7	8c#L	8bb]	8ee
8F#	.	8F#	4aa	4ff#
[8f#J	.	[8f#J	.	.
=	=	=	=	=
8f#L]	4 2	8f#L]	[4.gg	4b
16eL	.	16eL	.	.
16dJ	.	16dJ	.	.
8c#J	6 5	8c#J	.	8ee
=	=	=	=	=
8dL	5 4	8dL	8gg]	4a
8D	3	8A	4ff#	.
[8dJ	.	[8dJ	.	8aa
=	=	=	=	=
8dL]	#4| 2	8dL]	[4.ee	4gg#X
16c#L	.	16c#L	.	.
16BJ	.	16BJ	.	.
8A#XJ	6 5	8A#XJ	.	8ccc#
=	=	=	=	=
8BL	5 4	8BL	8ee]	4ff#
8BB	3	8F#	[4dd	.
8BJ	.	8BJ	.	8dd
=	=	=	=	=
8EL	7	8EL	8dd]	4.gg
8A	7	8A	[4cc#	.
8AAJ	.	8AAJ	.	.
=	=	=	=	=
4D	7	4D	8cc#L]	4.ff#
.	6	.	8f#	.
8G	7	8G	[8bJ	.
=	=	=	=	=
4C#	7	4C#	8bL]	4.ee
.	6	.	8e	.
8F#	7	8F#	[8aJ	.
=	=	=	=	=
4BB	7	4BB	8aL]	4.dd
.	6	.	8d	.
8E	7	8E	[8gJ	.
=	=	=	=	=
4AA	7	4AA	4g]	8cc#L
.	.	.	.	8a
8BB	5	8BB	[8f#	8ddJ
=	=	=	=	=
8GG	7 5	8GG	8f#]	8dL
4AA	5 4	4AA	4e	8.d
.	3	.	.	.
.	.	.	.	16c#Jk
=	=	=	=	=
8D	.	8D	4d	8dL
4d	.	4d	.	8.ff#
.	.	.	8r	.
.	.	.	.	16gg#XJk
=	=	=	=	=
8c#	6	8c#	8r	8aaL
4d#X	6 5	4d#X	8.ff#L	(16bbL
.	.	.	.	16aa
.	.	.	.	16ggni
.	.	.	16ff#Jk	16ff#JJ)
=	=	=	=	=
8.eL	.	8.eL	8.bL	8.ggL
16GK	.	16GK	16eeK	16bbK
[8AJ	6 #4|	[8AJ	8ff#J	8dd#XJ
=	=	=	=	=
8A]	7 5	8A]	8gg	8eeL
4B	5 4	4B	4ff#	8.ee
.	#	.	.	.
.	.	.	.	16dd#XJk
=	=	=	=	=
8E	.	8E	4ee	8eeL
4D#X	6	4D#X	.	(16bbL
.	.	.	.	16aa
.	.	.	8r	16gg
.	.	.	.	16ff#JJ)
=	=	=	=	=
8E	.	8E	8r	8gg
4BB	#	4BB	(16bbLL	4ff#
.	.	.	16aa	.
.	.	.	16gg	.
.	.	.	16ff#JJ)	.
=	=	=	=	=
8E	.	8E	8gg	8r
4D#X	6	4D#X	[4ff#	(16bbLL
.	.	.	.	16aa
.	.	.	.	16gg
.	.	.	.	16ff#JJ)
=	=	=	=	=
4E	9	4E	8ff#L]	[4.gg
.	8	.	(16eeL	.
.	.	.	16dd	.
8E	6	8E	16cc#	.
.	.	.	16bJJ)	.
=	=	=	=	=
4F#	9 #	4F#	8a#X	8ggL]
.	8	.	[4cc#	(16ff#L
.	.	.	.	16ee
8FF#	.	8FF#	.	16dd
.	.	.	.	16cc#JJ)
=	=	=	=	=
4BB	9	4BB	8cc#L]	4dd
.	8	.	8f#	.
8BB	.	8BB	[8bJ	8dd
=	=	=	=	=
4C#	7 #	4C#	8b]	4e#X
.	6	.	4a	.
[8BB	7 5	[8BB	.	[8f#
=	=	=	=	=
8BB]	#6\ 5	8BB]	8g#X	8f#L]
4C#	#5\ 4	4C#	4g#	8.f#
.	#	.	.	.
.	.	.	.	16e#XJk
=	=	=	=	=
4FF#	.	4FF#	4f#	8f#L
.	.	.	.	(16ff#L
.	.	.	.	16gg#XJ)
8f#	.	8f#	8r	[8aaJ
=	=	=	=	=
8d#XL	6 5	8d#XL	4.ff#	8aaL]
8BJ	.	8BJ	.	(16bbL
.	.	.	.	16aa
8r	.	8r	.	16ggni
.	.	.	.	16ff#JJ)
=	=	=	=	=
8eL	-	8eL	4.b	8ggL
8EJ	.	8EJ	.	(16eeL
.	.	.	.	16ff#J)
8r	.	8r	.	[8ggJ
=	=	=	=	=
8c#L	6 5	8c#L	4.ee	8ggL]
8AJ	.	8AJ	.	(16aaL
.	.	.	.	16gg
8r	.	8r	.	16ff#
.	.	.	.	16eeJJ)
=	=	=	=	=
8dL	.	8dL	4.a	8ff#L
8DJ	.	8DJ	.	(16ddL
.	.	.	.	16eeJ)
8r	.	8r	.	[8ff#J
=	=	=	=	=
8A#XL	6	8A#XL	4.cc#	8ff#L]
8F#J	.	8F#J	.	(16ff#L
.	.	.	.	16ee
8r	.	8r	.	16dd
.	.	.	.	16cc#JJ)
=	=	=	=	=
8BL	.	8BL	4.f#	8ddL
8BBJ	.	8BBJ	.	(16bL
.	.	.	.	16cc#J)
8r	.	8r	.	[8ddJ
=	=	=	=	=
4.E	7	4.E	4.g	8ddL]
.	.	.	.	(16eeL
.	.	.	.	16dd
.	6	.	.	16cc#
.	.	.	.	16bJJ)
=	=	=	=	=
4.F#	#	4.F#	4c#	8a#XL
.	.	.	.	(16ff#L
.	.	.	.	16eeJ)
.	.	.	8cc#	8ff#J
=	=	=	=	=
8BL	6	8BL	4dd	8r
8BBJ	.	8BBJ	.	(16ggLL
.	.	.	.	16ff#J)
8r	.	8r	8dd	8ggJ
=	=	=	=	=
8c#L	6	8c#L	4ee	8r
8C#J	.	8C#J	.	(16aaLL
.	.	.	.	16ggJ)
8r	.	8r	8ee	8aaJ
=	=	=	=	=
8dL	6	8dL	4ff#	8r
8DJ	.	8DJ	.	(16bbLL
.	.	.	.	16aa#XJ)
8r	.	8r	8ff#	8bbJ
=	=	=	=	=
8eL	6	8eL	4gg	8r
8EJ	.	8EJ	.	(16ccc#LL
.	.	.	.	16ddd
8r	.	8r	8gg	16ccc#
.	.	.	.	16bbJJ)
=	=	=	=	=
4f#	#	4f#	8.cc#L	8.aa#XL
.	.	.	16cc#K	16aa#L
8d	6	8d	8ddJ	(16bb
.	.	.	.	16ff#JJ)
=	=	=	=	=
8eL	6 5	8eL	(16cc#LL	16eeLL
.	.	.	16bJ)	16ddJJ
8f#	4	8f#	8.b	4cc#
8F#J	#	8F#J	.	.
.	.	.	16a#XJk	.
=	=	=	=	=
4B	.	4B	4b	4b
[8A	6	[8A	[8cc#	[8ff#
=	=	=	=	=
8A]	.	8A]	8cc#]	8ff#L]
4G	6	4G	4b	8.ee
.	.	.	.	16ff#Jk
=	=	=	=	=
4.F#	#	4.F#	4.a#X	4.ff#
==	==	==	==	==
*-	*-	*-	*-	*-
!!!system-decoration: [{s1,s2},s3,s4]
!!!YEM: CC BY-NC-SA 4.0; CCARH; DCML
!!!RDF**kern: i = editorial accidental